X:1
T:I'm Working on the Food Chain
M:4/4
L:1/8
K:A
 A2| A8-| A4- AE EE| E2 C6-| C2 z4 EE| EE EEE-D| C2| A,2 A,2 CC EE|\
 F2 A6-| A4 z2 AA| AA A2 A2 F2| E8-| E2 z4 F2| G8-| G6 GG|F-E E6-|\
 E4 z2 EE| EE E2E-D C2| A,8-| A,2 z4||
